X:8115
T:John Kelly's
R:reel
D:Colm Murphy: An Bodhr\'an
Z:hn-reel-699
M:C|
K:Amix
cAAB cAeA|cA~A2 G3B|cAAB cAeA|1 cA (3BcB A2AB:|2 cA (3BcB A2cd||
|:ea~a2 efed|cdef g2fg|ea~a2 efed|1 cA (3BcB A2cd:|2 cA (3BcB A2AB||
